symbols/web/alarm_add/materialsymbolsrounded/alarm_add_wght600fill1_48px.svg

<svg xmlns="http://www.w3.org/2000/svg" height="48" width="48"><path d="M24 33.8q.65 0 1.15-.475.5-.475.5-1.125v-4.6h4.5q.65 0 1.15-.475.5-.475.5-1.225 0-.65-.475-1.15-.475-.5-1.125-.5h-4.55v-4.5q0-.7-.45-1.175-.45-.475-1.2-.475-.65 0-1.15.475-.5.475-.5 1.125v4.55H17.9q-.7 0-1.2.475t-.5 1.175q0 .7.475 1.2t1.175.5h4.5v4.55q0 .7.45 1.175.45.475 1.2.475Zm0 10.8q-3.85 0-7.25-1.45t-5.925-4q-2.525-2.55-4-5.925T5.35 25.95q0-3.85 1.475-7.25t4-5.95q2.525-2.55 5.925-4.025Q20.15 7.25 24 7.25t7.25 1.475q3.4 1.475 5.95 4.025 2.55 2.55 4.025 5.95 1.475 3.4 1.475 7.25 0 3.9-1.475 7.275Q39.75 36.6 37.2 39.15q-2.55 2.55-5.95 4-3.4 1.45-7.25 1.45ZM5.15 13.45q-.5.45-1.175.45T2.8 13.4q-.5-.5-.5-1.175t.5-1.175L9.25 4.9q.5-.45 1.175-.475Q11.1 4.4 11.6 4.9t.525 1.2q.025.7-.475 1.15Zm37.7-.05L36.4 7.2q-.45-.45-.475-1.125Q35.9 5.4 36.4 4.9q.45-.45 1.125-.45t1.175.45l6.45 6.2q.45.45.475 1.125.025.675-.475 1.175-.45.5-1.125.5t-1.175-.5Z"/></svg>

<svg xmlns="http://www.w3.org/2000/svg" height="48" width="48"><path d="M24 33.8Q24.65 33.8 25.15 33.325Q25.65 32.85 25.65 32.2V27.6H30.15Q30.8 27.6 31.3 27.125Q31.8 26.65 31.8 25.9Q31.8 25.25 31.325 24.75Q30.85 24.25 30.2 24.25H25.65V19.75Q25.65 19.05 25.2 18.575Q24.75 18.1 24 18.1Q23.35 18.1 22.85 18.575Q22.35 19.05 22.35 19.7V24.25H17.9Q17.2 24.25 16.7 24.725Q16.2 25.2 16.2 25.9Q16.2 26.6 16.675 27.1Q17.15 27.6 17.85 27.6H22.35V32.15Q22.35 32.85 22.8 33.325Q23.25 33.8 24 33.8ZM24 44.6Q20.15 44.6 16.75 43.15Q13.35 41.7 10.825 39.15Q8.3 36.6 6.825 33.225Q5.35 29.85 5.35 25.95Q5.35 22.1 6.825 18.7Q8.3 15.3 10.825 12.75Q13.35 10.2 16.75 8.725Q20.15 7.25 24 7.25Q27.85 7.25 31.25 8.725Q34.65 10.2 37.2 12.75Q39.75 15.3 41.225 18.7Q42.7 22.1 42.7 25.95Q42.7 29.85 41.225 33.225Q39.75 36.6 37.2 39.15Q34.65 41.7 31.25 43.15Q27.85 44.6 24 44.6ZM5.15 13.45Q4.65 13.9 3.975 13.9Q3.3 13.9 2.8 13.4Q2.3 12.9 2.3 12.225Q2.3 11.55 2.8 11.05L9.25 4.9Q9.75 4.45 10.425 4.425Q11.1 4.4 11.6 4.9Q12.1 5.4 12.125 6.1Q12.15 6.8 11.65 7.25ZM42.85 13.4 36.4 7.2Q35.95 6.75 35.925 6.075Q35.9 5.4 36.4 4.9Q36.85 4.45 37.525 4.45Q38.2 4.45 38.7 4.9L45.15 11.1Q45.6 11.55 45.625 12.225Q45.65 12.9 45.15 13.4Q44.7 13.9 44.025 13.9Q43.35 13.9 42.85 13.4Z"/></svg>
